X:1
T:Compliments Returned
M:6/8
L:1/4
K:Eb
 E/2| G G/2 G E/2| G G/2 G E/2| G G/2 B B/2| F3/2- F d/4d/4| d d/2 d d/2|\
 d c/2 c c/2| B B/2 A F/2| E3/2- E e/2| e e/2 e B/2| G A/2 B B/4B/4|\
 e/2e/2e/2 d e/2| F3/2- F d/4d/4| d d/2 d d/2| d c/2 c c/2| B/2B/2B/2 A F/2|\
 E3/2- E/2 z| G G/2 G E/2| A A/2 A3/2| G G/2 B B/2| F3| d d/2 d d/2|\
 d c/2 c3/2| B B/2 A F/2| E3/2- E||
